assets/img/braze_icons/copy-03.svg

<svg fill="none" height="24" viewBox="0 0 24 24" width="24" xmlns="http://www.w3.org/2000/svg"><g fill="#801ed7"><path clip-rule="evenodd" d="m5.16146 7h7.67704c.5272-.00002.982-.00003 1.3565.03057.3954.0323.7886.10362 1.167.29641.5645.28762 1.0234.74656 1.311 1.31105.1928.37838.2641.7716.2964 1.16694.0306.37453.0306.82933.0306 1.35643v7.6771c0 .5272 0 .982-.0306 1.3565-.0323.3954-.1036.7886-.2964 1.167-.2876.5645-.7465 1.0234-1.311 1.311-.3784.1928-.7716.2641-1.167.2964-.3745.0306-.8292.0306-1.3564.0306h-7.67712c-.52711 0-.98196 0-1.35651-.0306-.39534-.0323-.78856-.1036-1.16694-.2964-.56449-.2876-1.02343-.7465-1.31105-1.311-.19279-.3784-.26411-.7716-.29641-1.167-.030605-.3745-.030588-.8293-.03057-1.3565v-7.677c-.000018-.5272-.000035-.9819.03057-1.35653.0323-.39534.10362-.78856.29641-1.16694.28762-.56449.74656-1.02343 1.31105-1.31105.37838-.19279.7716-.26411 1.16694-.29641.37456-.0306.82935-.03059 1.35649-.03057z" fill-rule="evenodd"/><path d="m18.8385 1h-7.677c-.5272-.000016-.982-.000031-1.35652.03057-.39535.0323-.78857.10362-1.16695.29641-.56448.28762-1.02342.74656-1.31104 1.31105-.1928.37838-.26412.7716-.29642 1.16694-.02743.33579-.03026.73601-.03054 1.19506l5.88087-.00002c.4886-.00011 1.0184-.00024 1.477.03723.519.0424 1.2047.14736 1.9121.50775.9408.47937 1.7057 1.24427 2.185 2.18508.3604.70732.4654 1.39304.5078 1.91206.0375.45857.0373.98837.0372 1.47707v5.8808c.459-.0003.8593-.0031 1.195-.0306.3954-.0323.7886-.1036 1.167-.2964.5645-.2876 1.0234-.7465 1.311-1.311.1928-.3784.2641-.7716.2964-1.167.0306-.3745.0306-.8292.0306-1.3564v-7.67712c0-.52711 0-.98196-.0306-1.35651-.0323-.39534-.1036-.78856-.2964-1.16694-.2876-.56449-.7465-1.02343-1.311-1.31105-.3784-.19279-.7716-.26411-1.167-.29641-.3745-.030601-.8293-.030586-1.3565-.03057z"/></g></svg>

<svg width="24" height="24" viewBox="0 0 24 24" fill="none" xmlns="http://www.w3.org/2000/svg">
<path fill-rule="evenodd" clip-rule="evenodd" d="M5.16146 7H12.8385C13.3657 6.99998 13.8205 6.99997 14.195 7.03057C14.5904 7.06287 14.9836 7.13419 15.362 7.32698C15.9265 7.6146 16.3854 8.07354 16.673 8.63803C16.8658 9.01641 16.9371 9.40963 16.9694 9.80497C17 10.1795 17 10.6343 17 11.1614V18.8385C17 19.3657 17 19.8205 16.9694 20.195C16.9371 20.5904 16.8658 20.9836 16.673 21.362C16.3854 21.9265 15.9265 22.3854 15.362 22.673C14.9836 22.8658 14.5904 22.9371 14.195 22.9694C13.8205 23 13.3658 23 12.8386 23H5.16148C4.63437 23 4.17952 23 3.80497 22.9694C3.40963 22.9371 3.01641 22.8658 2.63803 22.673C2.07354 22.3854 1.6146 21.9265 1.32698 21.362C1.13419 20.9836 1.06287 20.5904 1.03057 20.195C0.999965 19.8205 0.999982 19.3657 1 18.8385V11.1615C0.999982 10.6343 0.999965 10.1796 1.03057 9.80497C1.06287 9.40963 1.13419 9.01641 1.32698 8.63803C1.6146 8.07354 2.07354 7.6146 2.63803 7.32698C3.01641 7.13419 3.40963 7.06287 3.80497 7.03057C4.17953 6.99997 4.63432 6.99998 5.16146 7Z" fill="#801ED7"/>
<path d="M18.8385 1H11.1615C10.6343 0.999984 10.1795 0.999969 9.80498 1.03057C9.40963 1.06287 9.01641 1.13419 8.63803 1.32698C8.07355 1.6146 7.61461 2.07354 7.32699 2.63803C7.13419 3.01641 7.06287 3.40963 7.03057 3.80497C7.00314 4.14076 7.00031 4.54098 7.00003 5.00003L12.8809 5.00001C13.3695 4.9999 13.8993 4.99977 14.3579 5.03724C14.8769 5.07964 15.5626 5.1846 16.27 5.54499C17.2108 6.02436 17.9757 6.78926 18.455 7.73007C18.8154 8.43739 18.9204 9.12311 18.9628 9.64213C19.0003 10.1007 19.0001 10.6305 19 11.1192L19 17C19.459 16.9997 19.8593 16.9969 20.195 16.9694C20.5904 16.9371 20.9836 16.8658 21.362 16.673C21.9265 16.3854 22.3854 15.9265 22.673 15.362C22.8658 14.9836 22.9371 14.5904 22.9694 14.195C23 13.8205 23 13.3658 23 12.8386V5.16148C23 4.63437 23 4.17952 22.9694 3.80497C22.9371 3.40963 22.8658 3.01641 22.673 2.63803C22.3854 2.07354 21.9265 1.6146 21.362 1.32698C20.9836 1.13419 20.5904 1.06287 20.195 1.03057C19.8205 0.999969 19.3657 0.999984 18.8385 1Z" fill="#801ED7"/>
</svg>
